svgs/regular/paw.svg

<svg xmlns="http://www.w3.org/2000/svg" viewBox="0 0 512 512"><!--! Font Awesome Pro 6.2.0 by @fontawesome - https://fontawesome.com License - https://fontawesome.com/license (Commercial License) Copyright 2022 Fonticons, Inc. --><path d="M109.5 131.1C95.19 88.26 109.8 44.92 142.1 34.34C174.4 23.77 212.2 49.96 226.5 92.85C240.8 135.7 226.2 179.1 193.9 189.7C161.6 200.2 123.8 174 109.5 131.1zM490.2 165.3C514.7 179.3 519.2 216.1 500.4 249.4C481.5 281.9 446.3 296.8 421.8 282.7C397.3 268.7 392.8 231 411.6 198.6C430.5 166.1 465.7 151.2 490.2 165.3zM100.4 198.6C119.2 231 114.7 268.7 90.16 282.7C65.65 296.8 30.49 281.9 11.63 249.4C-7.237 216.1-2.664 179.3 21.84 165.3C46.35 151.2 81.51 166.1 100.4 198.6zM361.9 34.34C394.2 44.92 408.8 88.26 394.5 131.1C380.2 174 342.4 200.2 310.1 189.7C277.8 179.1 263.2 135.7 277.5 92.85C291.8 49.96 329.6 23.77 361.9 34.34zM69.3 392.1C121.7 252.4 214.8 224 256 224C297.2 224 390.3 252.4 442.7 392.1C446.4 402.8 448 413.4 448 423.9C448 454.9 422.9 480 391.9 480H388.5C380.3 480 372.1 478.4 364.4 475.3L291.7 446.3C268.8 437.1 243.2 437.1 220.3 446.3L147.6 475.3C139.9 478.4 131.7 480 123.5 480H120.1C89.11 480 64 454.9 64 423.9C64 413.4 65.62 402.8 69.3 392.1zM112 423.9C112 428.4 115.6 432 120.1 432H123.5C125.6 432 127.8 431.6 129.8 430.8L202.5 401.7C236.9 387.1 275.1 387.1 309.5 401.7L382.2 430.8C384.2 431.6 386.4 432 388.5 432H391.9C396.4 432 400 428.4 400 423.9C400 418.2 399.1 413.5 397.7 409.7C352.1 287.4 276.6 271.1 256 271.1C235.4 271.1 159.9 287.4 114.3 409.7C112.9 413.5 112 418.2 112 423.9z"/></svg>

<svg xmlns="http://www.w3.org/2000/svg" viewBox="0 0 512 512"><!--! Font Awesome Pro 6.3.0 by @fontawesome - https://fontawesome.com License - https://fontawesome.com/license (Commercial License) Copyright 2023 Fonticons, Inc. --><path d="M193.9 189.7c-32.3 10.6-70.1-15.6-84.4-58.5s.3-86.2 32.6-96.8s70.1 15.6 84.4 58.5s-.3 86.2-32.6 96.8zm217.7 8.9c18.9-32.4 54-47.3 78.5-33.3s29.1 51.7 10.2 84.1s-54 47.3-78.5 33.3s-29.1-51.7-10.2-84.1zm-311.3 0c18.9 32.4 14.3 70.1-10.2 84.1s-59.7-.9-78.5-33.3S-2.7 179.3 21.8 165.3s59.7 .9 78.5 33.3zM277.5 92.9c14.3-42.9 52.1-69.1 84.4-58.5s46.9 53.9 32.6 96.8s-52.1 69.1-84.4 58.5s-46.9-53.9-32.6-96.8zM114.3 409.7c-1.4 3.7-2.3 8.5-2.3 14.2c0 4.5 3.6 8.1 8.1 8.1h3.4c2.2 0 4.3-.4 6.3-1.2l72.7-29.1c34.3-13.7 72.6-13.7 107 0l72.7 29.1c2 .8 4.2 1.2 6.3 1.2h3.4c4.5 0 8.1-3.6 8.1-8.1c0-5.7-.9-10.4-2.3-14.2C352.1 287.4 276.6 272 256 272s-96.1 15.4-141.7 137.7zM69.3 393C121.7 252.4 214.8 224 256 224s134.3 28.4 186.7 169c3.7 9.9 5.3 20.4 5.3 31c0 31-25.1 56.1-56.1 56.1h-3.4c-8.3 0-16.5-1.6-24.2-4.7l-72.7-29.1c-22.9-9.2-48.4-9.2-71.3 0l-72.7 29.1c-7.7 3.1-15.9 4.7-24.2 4.7h-3.4c-31 0-56.1-25.1-56.1-56.1c0-10.5 1.6-21.1 5.3-31z"/></svg>
